frontend/src/assets/svgs/new-marker.svg

<?xml version="1.0" encoding="UTF-8" standalone="no"?>
<!-- Created with Inkscape (http://www.inkscape.org/) -->

<svg
   width="40"
   height="40"
   version="1.1"
   viewBox="0 0 10.583 10.583"
   id="svg28"
   sodipodi:docname="new-marker.svg"
   inkscape:version="1.1.1 (eb90963e84, 2021-10-02)"
   xmlns:inkscape="http://www.inkscape.org/namespaces/inkscape"
   xmlns:sodipodi="http://sodipodi.sourceforge.net/DTD/sodipodi-0.dtd"
   xmlns="http://www.w3.org/2000/svg"
   xmlns:svg="http://www.w3.org/2000/svg">
  <defs
     id="defs32" />
  <sodipodi:namedview
     id="namedview30"
     pagecolor="#505050"
     bordercolor="#ffffff"
     borderopacity="1"
     inkscape:pageshadow="0"
     inkscape:pageopacity="0"
     inkscape:pagecheckerboard="1"
     showgrid="false"
     inkscape:zoom="12.375"
     inkscape:cx="20"
     inkscape:cy="20"
     inkscape:window-width="1366"
     inkscape:window-height="704"
     inkscape:window-x="0"
     inkscape:window-y="27"
     inkscape:window-maximized="1"
     inkscape:current-layer="svg28"
     inkscape:snap-nodes="true"
     inkscape:snap-global="false"
     inkscape:snap-bbox="true"
     inkscape:bbox-nodes="true"
     inkscape:snap-bbox-edge-midpoints="true"
     inkscape:snap-bbox-midpoints="true" />
  <path
     id="path2092"
     style="fill:#41bbf5;fill-opacity:1;stroke:#000000;stroke-width:0.396685;stroke-linecap:butt;stroke-linejoin:miter;stroke-miterlimit:4;stroke-dasharray:none;stroke-opacity:1"
     d="M 5.143291,0.7641116 C 5.0262379,0.7652403 4.9079289,0.7739809 4.7868941,0.7909705 4.3027551,0.8589289 3.7760542,1.0411331 3.3571744,1.314719 2.9382945,1.5883049 2.5913881,1.9914244 2.3587465,2.3456873 2.1261048,2.6999505 2.0287079,2.9951941 1.9532804,3.3652924 c -0.075426,0.3700984 -0.03409,1.1936714 -0.03409,1.1936714 0,0 0.140803,1.0503784 0.6575265,1.9255764 0.4384104,0.7425553 0.8717348,1.2832056 1.1508005,1.6337439 0.715305,0.8985061 1.4483143,1.6817777 1.4483143,1.6817777 0,0 0.7330093,-0.7832716 1.4483142,-1.6817777 0.2790656,-0.3505383 0.7118735,-0.8911886 1.150284,-1.6337439 0.5167235,-0.875198 0.6580429,-1.9255764 0.6580429,-1.9255764 0,0 0.037803,-0.8402433 -0.038739,-1.2179477 C 8.3171918,2.963312 8.1766254,2.6339849 7.9908505,2.3508527 7.8050757,2.0677203 7.686261,1.8928929 7.3927235,1.6256624 7.0991862,1.3584318 6.6528309,1.0627234 6.1840732,0.926298 5.8325049,0.823979 5.4944507,0.7607256 5.143291,0.7641116 Z M 5.162402,2.078648 A 1.9693138,1.9693138 0 0 1 7.1318823,4.0481282 1.9693138,1.9693138 0 0 1 5.1624022,6.0170921 1.9693138,1.9693138 0 0 1 3.1929218,4.0481282 1.9693138,1.9693138 0 0 1 5.162402,2.078648 Z" />
</svg>

<?xml version="1.0" encoding="UTF-8"?>
<!-- Created with Inkscape (http://www.inkscape.org/) -->
<svg width="40" height="40" version="1.1" viewBox="0 0 10.583 10.583" xmlns="http://www.w3.org/2000/svg">
 <path d="m5.1433 0.76411c-0.11705 0.0011287-0.23536 0.0098693-0.3564 0.026859-0.48414 0.067958-1.0108 0.25016-1.4297 0.52375-0.41888 0.27359-0.76579 0.67671-0.99843 1.031-0.23264 0.35426-0.33004 0.64951-0.40547 1.0196-0.075426 0.3701-0.03409 1.1937-0.03409 1.1937s0.1408 1.0504 0.65753 1.9256c0.43841 0.74256 0.87173 1.2832 1.1508 1.6337 0.7153 0.89851 1.4483 1.6818 1.4483 1.6818s0.73301-0.78327 1.4483-1.6818c0.27907-0.35054 0.71187-0.89119 1.1503-1.6337 0.51672-0.8752 0.65804-1.9256 0.65804-1.9256s0.037803-0.84024-0.038739-1.2179c-0.076542-0.3777-0.21711-0.70703-0.40288-0.99016-0.18577-0.28313-0.30459-0.45796-0.59813-0.72519-0.29354-0.26723-0.73989-0.56294-1.2087-0.69936-0.35157-0.10232-0.68962-0.16557-1.0408-0.16219zm0.019111 1.3145a1.9693 1.9693 0 0 1 1.9695 1.9695 1.9693 1.9693 0 0 1-1.9695 1.969 1.9693 1.9693 0 0 1-1.9695-1.969 1.9693 1.9693 0 0 1 1.9695-1.9695z" fill="#329f5b" stroke="#000" stroke-width=".39668"/>
</svg>
